docs/images/kijiji.svg

<svg height="297" viewBox="0 0 600 297" width="600" xmlns="http://www.w3.org/2000/svg" xmlns:xlink="http://www.w3.org/1999/xlink"><mask id="a" fill="#fff"><path d="m27 54c14.912 0 27-12.088 27-27s-12.088-27-27-27-27 12.088-27 27 12.088 27 27 27zm.5-14c6.904 0 12.5-5.596 12.5-12.5s-5.596-12.5-12.5-12.5-12.5 5.596-12.5 12.5 5.596 12.5 12.5 12.5z" fill="#fff" fill-rule="evenodd"/></mask><mask id="b" fill="#fff"><path d="m27 54c14.912 0 27-12.088 27-27s-12.088-27-27-27-27 12.088-27 27 12.088 27 27 27zm.5-14c6.904 0 12.5-5.596 12.5-12.5s-5.596-12.5-12.5-12.5-12.5 5.596-12.5 12.5 5.596 12.5 12.5 12.5z" fill="#fff" fill-rule="evenodd"/></mask><mask id="c" fill="#fff"><path d="m27 54c14.912 0 27-12.088 27-27s-12.088-27-27-27-27 12.088-27 27 12.088 27 27 27zm.5-14c6.904 0 12.5-5.596 12.5-12.5s-5.596-12.5-12.5-12.5-12.5 5.596-12.5 12.5 5.596 12.5 12.5 12.5z" fill="#fff" fill-rule="evenodd"/></mask><mask id="d" fill="#fff"><path d="m27 54c14.912 0 27-12.088 27-27s-12.088-27-27-27-27 12.088-27 27 12.088 27 27 27zm.5-14c6.904 0 12.5-5.596 12.5-12.5s-5.596-12.5-12.5-12.5-12.5 5.596-12.5 12.5 5.596 12.5 12.5 12.5z" fill="#fff" fill-rule="evenodd"/></mask><mask id="e" fill="#fff"><path d="m27 54c14.912 0 27-12.088 27-27s-12.088-27-27-27-27 12.088-27 27 12.088 27 27 27zm.5-14c6.904 0 12.5-5.596 12.5-12.5s-5.596-12.5-12.5-12.5-12.5 5.596-12.5 12.5 5.596 12.5 12.5 12.5z" fill="#fff" fill-rule="evenodd"/></mask><mask id="f" fill="#fff"><path d="m3.596 4.502v11.461s16.89-1.023 18.14.898c1.251 1.922 0 182.535 0 186.561s-8.09 5.98-8.09 5.98l-13.503-.027v11.66c31.053-2.721 70.837 0 70.837 0v-10.992l-12.632-.996s-6.795-.473-6.795-7.522c0-7.048-.014-56.822-.014-56.822s6.809-.993 9.748.686c2.94 1.678 53.512 79.045 53.512 79.045 16.358-.541 32.454-4.382 48.812-4.922 20.09-.664 60.532 1.31 60.532 1.31l.843-11.447s-15.21-.823-18.036-3.931c-2.825-3.109-2.149-102.688-1.05-106.302 1.1-3.615 25.662-8.505 25.662-8.505l-.841-11.434s-26.739 6.736-40.193 8.809c-12.784 1.971-38.522 3.324-38.522 3.324l-.514 10.42s20.623-.629 23.25 1c2.628 1.628 0 96.754 0 96.754s.672 9.865-11.131 9.865c-17.245 0-20.725-2.018-23.539-5.096-6.056-6.624-55.093-74.821-55.093-74.821l26.388-32.196s12.39-18.839 37.73-22.395v-11.083s-38.942 7.444-64.118 8.212v10.647s15.319-1.11 16.927-.514-34.816 53.243-50.353 51.725l1.541-133.768s-15.127 4.416-49.498 4.416z" fill="#fff" fill-rule="evenodd"/></mask><mask id="g" fill="#fff"><path d="m7.452 8.054s20.656-.141 36.006-1.501c15.066-1.334 55.243-6.583 55.243-6.583l.227 11.119s-22.493 3.104-26.795 4.905c-1.851.775-1.737 21.607-1.813 44.958-.1 30.918 0 66.34 0 66.34s0 39.433-16.35 62.175-41.779 24.98-41.779 24.98-12.436 2.302-12.436-11.871c0-6.806 6.732-11.449 11.746-11.133 5.427.341 9.169 5.947 9.169 5.947s5.168 1.917 11.192-7.923 7.12-24.981 7.12-24.981 3.396-143.021.19-144.767c-3.207-1.746-30.906-.176-30.906-.176z" fill="#fff" fill-rule="evenodd"/></mask><mask id="h" fill="#fff"><path d="m9.844-.03s5.143-.168 30.906 2.925c25.763 3.092 53.025 1.731 53.025 1.731v11.368s-17.574-1.801-21.877 0c-1.851.775.076 21.607 0 44.958-.1 30.918 0 66.34 0 66.34s-1.653 45.163-18.003 67.905c-16.351 22.742-41.311 24.98-41.311 24.98s-12.436 2.303-12.436-11.87c0-6.807 6.732-11.45 11.747-11.134 5.427.342 9.168 5.947 9.168 5.947s5.168 1.917 11.192-7.923 8.305-30.711 8.305-30.711 3.206-146.746 0-148.492-30.716-5.81-30.716-5.81z" fill="#fff" fill-rule="evenodd"/></mask><mask id="i" fill="#fff"><path d="m.668 9.826s24.961-.96 37.811-2.615c13.443-1.732 41.069-7.547 41.069-7.547l.58 10.116s-15.775 3.978-18.374 7.546c-2.599 3.567 0 105.484 0 105.484s0 8.439 2.577 10.779c2.577 2.339 16.463 1.488 16.463 1.488v11.276h-72.079l.667-10.801s14.905-.475 18.336-2.402c3.431-1.926 3.447-11.62 3.447-11.62s3.029-97.609-.459-100.645c-3.489-3.035-30.705-.571-30.705-.571z" fill="#fff" fill-rule="evenodd"/></mask><mask id="j" fill="#fff"><path d="m.382 9.78s16.247-.914 29.097-2.569c13.443-1.732 41.069-7.547 41.069-7.547l.58 10.116s-15.775 3.978-18.374 7.546c-2.599 3.567 0 105.484 0 105.484s-1.014 9.29 2.577 10.779c3.591 1.488 16.463.488 16.463.488v12.276h-72.079l.667-13.203s14.905 1.927 18.336 0c3.431-1.926 3.447-10.34 3.447-10.34s-.303-32.816 0-60.926c.219-20.297 0-35.204 0-39.411 0-3.549-21.783-1.588-21.783-1.588z" fill="#fff" fill-rule="evenodd"/></mask><mask id="k" fill="#fff"><path d="m3.673 9.982v-8.702h-3.251v-1.165h7.82v1.165h-3.264v8.702zm5.868 0v-9.867h1.965l2.336 6.986c.215.651.372 1.138.471 1.461.112-.359.287-.887.525-1.582l2.362-6.865h1.757v9.867h-1.259v-8.258l-2.867 8.258h-1.178l-2.853-8.4v8.4z" fill="#fff" fill-rule="evenodd"/></mask><g fill="none" fill-rule="evenodd"><path d="m-.04-.04h54.12v54.12h-54.12z" fill="#f2a52d" mask="url(#a)" transform="translate(162 34)"/><path d="m-.04 0h54.12v54.12h-54.12z" fill="#ea633f" mask="url(#b)" transform="translate(249)"/><path d="m-.08 0h54.12v54.12h-54.12z" fill="#7084bf" mask="url(#c)" transform="translate(337 45)"/><path d="m-.08-.08h54.12v54.12h-54.12z" fill="#abc85a" mask="url(#d)" transform="translate(424 14)"/><path d="m-.08 0h54.12v54.12h-54.12z" fill="#a34295" mask="url(#e)" transform="translate(511 27)"/><g fill="#3f4485"><path d="m.08.04h231.6v224.4h-231.6z" mask="url(#f)" transform="translate(0 11)"/><path d="m-.36-.12h99.36v214.8h-99.36z" mask="url(#g)" transform="translate(224 60)"/><path d="m.04-.04h93.84v220.44h-93.84z" mask="url(#h)" transform="translate(394 76)"/><path d="m-.04-.4h80.88v146.76h-80.88z" mask="url(#i)" transform="translate(318 103)"/><path d="m-.32-.44h72.12v146.88h-72.12z" mask="url(#j)" transform="translate(502 86)"/><path d="m.36 0h18.6v10.08h-18.6z" mask="url(#k)" transform="translate(581 84)"/></g></g></svg>

<?xml version="1.0" encoding="UTF-8" standalone="no"?>
<svg width="600px" height="297px" viewBox="0 0 600 297" version="1.1" xmlns="http://www.w3.org/2000/svg" xmlns:xlink="http://www.w3.org/1999/xlink" xmlns:sketch="http://www.bohemiancoding.com/sketch/ns">
    <title>Slice 1</title>
    <description>Created with Sketch (http://www.bohemiancoding.com/sketch)</description>
    <defs>
        <path d="M27,54 C41.912,54 54,41.912 54,27 C54,12.088 41.912,0 27,0 C12.088,0 0,12.088 0,27 C0,41.912 12.088,54 27,54 L27,54 Z M27.5,40 C34.404,40 40,34.404 40,27.5 C40,20.596 34.404,15 27.5,15 C20.596,15 15,20.596 15,27.5 C15,34.404 20.596,40 27.5,40 L27.5,40 Z" id="path-1"></path>
        <path d="M27,54 C41.912,54 54,41.912 54,27 C54,12.088 41.912,0 27,0 C12.088,0 0,12.088 0,27 C0,41.912 12.088,54 27,54 L27,54 Z M27.5,40 C34.404,40 40,34.404 40,27.5 C40,20.596 34.404,15 27.5,15 C20.596,15 15,20.596 15,27.5 C15,34.404 20.596,40 27.5,40 L27.5,40 Z" id="path-3"></path>
        <path d="M27,54 C41.912,54 54,41.912 54,27 C54,12.088 41.912,0 27,0 C12.088,0 0,12.088 0,27 C0,41.912 12.088,54 27,54 L27,54 Z M27.5,40 C34.404,40 40,34.404 40,27.5 C40,20.596 34.404,15 27.5,15 C20.596,15 15,20.596 15,27.5 C15,34.404 20.596,40 27.5,40 L27.5,40 Z" id="path-5"></path>
        <path d="M27,54 C41.912,54 54,41.912 54,27 C54,12.088 41.912,0 27,0 C12.088,0 0,12.088 0,27 C0,41.912 12.088,54 27,54 L27,54 Z M27.5,40 C34.404,40 40,34.404 40,27.5 C40,20.596 34.404,15 27.5,15 C20.596,15 15,20.596 15,27.5 C15,34.404 20.596,40 27.5,40 L27.5,40 Z" id="path-7"></path>
        <path d="M27,54 C41.912,54 54,41.912 54,27 C54,12.088 41.912,0 27,0 C12.088,0 0,12.088 0,27 C0,41.912 12.088,54 27,54 L27,54 Z M27.5,40 C34.404,40 40,34.404 40,27.5 C40,20.596 34.404,15 27.5,15 C20.596,15 15,20.596 15,27.5 C15,34.404 20.596,40 27.5,40 L27.5,40 Z" id="path-9"></path>
        <path id="path-11" d="M3.596,4.502 L3.596,15.963 C3.596,15.963 20.486,14.94 21.736,16.861 C22.987,18.783 21.736,199.396 21.736,203.422 C21.736,207.448 13.646,209.402 13.646,209.402 L0.143,209.375 L0.143,221.035 C31.196,218.314 70.98,221.035 70.98,221.035 L70.98,210.043 L58.348,209.047 C58.348,209.047 51.553,208.574 51.553,201.525 C51.553,194.477 51.539,144.703 51.539,144.703 C51.539,144.703 58.348,143.71 61.287,145.389 C64.227,147.067 114.799,224.434 114.799,224.434 C131.157,223.893 147.253,220.052 163.611,219.512 C183.701,218.848 224.143,220.822 224.143,220.822 L224.986,209.375 C224.986,209.375 209.776,208.552 206.95,205.444 C204.125,202.335 204.801,102.756 205.9,99.142 C207,95.527 231.562,90.637 231.562,90.637 L230.721,79.203 C230.721,79.203 203.982,85.939 190.528,88.012 C177.744,89.983 152.006,91.336 152.006,91.336 L151.492,101.756 C151.492,101.756 172.115,101.127 174.742,102.756 C177.37,104.384 174.742,199.51 174.742,199.51 C174.742,199.51 175.414,209.375 163.611,209.375 C146.366,209.375 142.886,207.357 140.072,204.279 C134.016,197.655 84.979,129.458 84.979,129.458 L111.367,97.262 C111.367,97.262 123.757,78.423 149.097,74.867 L149.097,63.784 C149.097,63.784 110.155,71.228 84.979,71.996 L84.979,82.643 C84.979,82.643 100.298,81.533 101.906,82.129 C103.514,82.725 67.09,135.372 51.553,133.854 L53.094,0.086 C53.094,0.086 37.967,4.502 3.596,4.502 L3.596,4.502 Z"></path>
        <path id="path-13" d="M7.452,8.054 C7.452,8.054 28.108,7.913 43.458,6.553 C58.524,5.219 98.701,-0.03 98.701,-0.03 L98.928,11.089 C98.928,11.089 76.435,14.193 72.133,15.994 C70.282,16.769 70.396,37.601 70.32,60.952 C70.22,91.87 70.32,127.292 70.32,127.292 C70.32,127.292 70.32,166.725 53.97,189.467 C37.62,212.209 12.191,214.447 12.191,214.447 C12.191,214.447 -0.245,216.749 -0.245,202.576 C-0.245,195.77 6.487,191.127 11.501,191.443 C16.928,191.784 20.67,197.39 20.67,197.39 C20.67,197.39 25.838,199.307 31.862,189.467 C37.886,179.627 38.982,164.486 38.982,164.486 C38.982,164.486 42.378,21.465 39.172,19.719 C35.965,17.973 8.266,19.543 8.266,19.543 L7.452,8.054 L7.452,8.054 Z"></path>
        <path id="path-15" d="M9.844,-0.03 C9.844,-0.03 14.987,-0.198 40.75,2.895 C66.513,5.987 93.775,4.626 93.775,4.626 L93.775,15.994 C93.775,15.994 76.201,14.193 71.898,15.994 C70.047,16.769 71.974,37.601 71.898,60.952 C71.798,91.87 71.898,127.292 71.898,127.292 C71.898,127.292 70.245,172.455 53.895,195.197 C37.544,217.939 12.584,220.177 12.584,220.177 C12.584,220.177 0.148,222.48 0.148,208.307 C0.148,201.5 6.88,196.857 11.895,197.173 C17.322,197.515 21.063,203.12 21.063,203.12 C21.063,203.12 26.231,205.037 32.255,195.197 C38.279,185.357 40.56,164.486 40.56,164.486 C40.56,164.486 43.766,17.74 40.56,15.994 C37.354,14.248 9.844,10.184 9.844,10.184 L9.844,-0.03 L9.844,-0.03 Z"></path>
        <path id="path-17" d="M0.668,9.826 C0.668,9.826 25.629,8.866 38.479,7.211 C51.922,5.479 79.548,-0.336 79.548,-0.336 L80.128,9.78 C80.128,9.78 64.353,13.758 61.754,17.326 C59.155,20.893 61.754,122.81 61.754,122.81 C61.754,122.81 61.754,131.249 64.331,133.589 C66.908,135.928 80.794,135.077 80.794,135.077 L80.794,146.353 L8.715,146.353 L9.382,135.552 C9.382,135.552 24.287,135.077 27.718,133.15 C31.149,131.224 31.165,121.53 31.165,121.53 C31.165,121.53 34.194,23.921 30.706,20.885 C27.217,17.85 0.001,20.314 0.001,20.314 L0.668,9.826 L0.668,9.826 Z"></path>
        <path id="path-19" d="M0.382,9.78 C0.382,9.78 16.629,8.866 29.479,7.211 C42.922,5.479 70.548,-0.336 70.548,-0.336 L71.128,9.78 C71.128,9.78 55.353,13.758 52.754,17.326 C50.155,20.893 52.754,122.81 52.754,122.81 C52.754,122.81 51.74,132.1 55.331,133.589 C58.922,135.077 71.794,134.077 71.794,134.077 L71.794,146.353 L-0.285,146.353 L0.382,133.15 C0.382,133.15 15.287,135.077 18.718,133.15 C22.149,131.224 22.165,122.81 22.165,122.81 C22.165,122.81 21.862,89.994 22.165,61.884 C22.384,41.587 22.165,26.68 22.165,22.473 C22.165,18.924 0.382,20.885 0.382,20.885 L0.382,9.78 L0.382,9.78 Z"></path>
        <path d="M3.673,9.982 L3.673,1.28 L0.422,1.28 L0.422,0.115 L8.242,0.115 L8.242,1.28 L4.978,1.28 L4.978,9.982 L3.673,9.982 L3.673,9.982 Z M9.541,9.982 L9.541,0.115 L11.506,0.115 L13.842,7.101 C14.057,7.752 14.214,8.239 14.313,8.562 C14.425,8.203 14.6,7.675 14.838,6.98 L17.2,0.115 L18.957,0.115 L18.957,9.982 L17.698,9.982 L17.698,1.724 L14.831,9.982 L13.653,9.982 L10.8,1.582 L10.8,9.982 L9.541,9.982 L9.541,9.982 Z" id="path-21"></path>
    </defs>
    <g id="Page-1" stroke="none" stroke-width="1" fill="none" fill-rule="evenodd" sketch:type="MSPage">
        <g id="kijiji" sketch:type="MSLayerGroup">
            <g id="Group-3" transform="translate(162.000000, 34.000000)">
                <mask id="mask-2" sketch:name="Clip 2" fill="white">
                    <use xlink:href="#path-1"></use>
                </mask>
                <g id="Clip-2"></g>
                <path d="M-0.04,-0.04 L54.08,-0.04 L54.08,54.08 L-0.04,54.08 L-0.04,-0.04 Z" id="Fill-1" fill="#F2A52D" sketch:type="MSShapeGroup" mask="url(#mask-2)"></path>
            </g>
            <g id="Group-6" transform="translate(249.000000, 0.000000)">
                <mask id="mask-4" sketch:name="Clip 5" fill="white">
                    <use xlink:href="#path-3"></use>
                </mask>
                <g id="Clip-5"></g>
                <path d="M-0.04,0 L54.08,0 L54.08,54.12 L-0.04,54.12 L-0.04,0 Z" id="Fill-4" fill="#EA633F" sketch:type="MSShapeGroup" mask="url(#mask-4)"></path>
            </g>
            <g id="Group-9" transform="translate(337.000000, 45.000000)">
                <mask id="mask-6" sketch:name="Clip 8" fill="white">
                    <use xlink:href="#path-5"></use>
                </mask>
                <g id="Clip-8"></g>
                <path d="M-0.08,0 L54.04,0 L54.04,54.12 L-0.08,54.12 L-0.08,0 Z" id="Fill-7" fill="#7084BF" sketch:type="MSShapeGroup" mask="url(#mask-6)"></path>
            </g>
            <g id="Group-12" transform="translate(424.000000, 14.000000)">
                <mask id="mask-8" sketch:name="Clip 11" fill="white">
                    <use xlink:href="#path-7"></use>
                </mask>
                <g id="Clip-11"></g>
                <path d="M-0.08,-0.08 L54.04,-0.08 L54.04,54.04 L-0.08,54.04 L-0.08,-0.08 Z" id="Fill-10" fill="#ABC85A" sketch:type="MSShapeGroup" mask="url(#mask-8)"></path>
            </g>
            <g id="Group-15" transform="translate(511.000000, 27.000000)">
                <mask id="mask-10" sketch:name="Clip 14" fill="white">
                    <use xlink:href="#path-9"></use>
                </mask>
                <g id="Clip-14"></g>
                <path d="M-0.08,0 L54.04,0 L54.04,54.12 L-0.08,54.12 L-0.08,0 Z" id="Fill-13" fill="#A34295" sketch:type="MSShapeGroup" mask="url(#mask-10)"></path>
            </g>
            <g id="Group-18" transform="translate(0.000000, 11.000000)">
                <mask id="mask-12" sketch:name="Clip 17" fill="white">
                    <use xlink:href="#path-11"></use>
                </mask>
                <g id="Clip-17"></g>
                <path d="M0.08,0.04 L231.68,0.04 L231.68,224.44 L0.08,224.44 L0.08,0.04 Z" id="Fill-16" fill="#3F4485" sketch:type="MSShapeGroup" mask="url(#mask-12)"></path>
            </g>
            <g id="Group-21" transform="translate(224.000000, 60.000000)">
                <mask id="mask-14" sketch:name="Clip 20" fill="white">
                    <use xlink:href="#path-13"></use>
                </mask>
                <g id="Clip-20"></g>
                <path d="M-0.36,-0.12 L99,-0.12 L99,214.68 L-0.36,214.68 L-0.36,-0.12 Z" id="Fill-19" fill="#3F4485" sketch:type="MSShapeGroup" mask="url(#mask-14)"></path>
            </g>
            <g id="Group-24" transform="translate(394.000000, 76.000000)">
                <mask id="mask-16" sketch:name="Clip 23" fill="white">
                    <use xlink:href="#path-15"></use>
                </mask>
                <g id="Clip-23"></g>
                <path d="M0.04,-0.04 L93.88,-0.04 L93.88,220.4 L0.04,220.4 L0.04,-0.04 Z" id="Fill-22" fill="#3F4485" sketch:type="MSShapeGroup" mask="url(#mask-16)"></path>
            </g>
            <g id="Group-27" transform="translate(318.000000, 103.000000)">
                <mask id="mask-18" sketch:name="Clip 26" fill="white">
                    <use xlink:href="#path-17"></use>
                </mask>
                <g id="Clip-26"></g>
                <path d="M-0.04,-0.4 L80.84,-0.4 L80.84,146.36 L-0.04,146.36 L-0.04,-0.4 Z" id="Fill-25" fill="#3F4485" sketch:type="MSShapeGroup" mask="url(#mask-18)"></path>
            </g>
            <g id="Group-30" transform="translate(502.000000, 86.000000)">
                <mask id="mask-20" sketch:name="Clip 29" fill="white">
                    <use xlink:href="#path-19"></use>
                </mask>
                <g id="Clip-29"></g>
                <path d="M-0.32,-0.44 L71.8,-0.44 L71.8,146.44 L-0.32,146.44 L-0.32,-0.44 Z" id="Fill-28" fill="#3F4485" sketch:type="MSShapeGroup" mask="url(#mask-20)"></path>
            </g>
            <g id="Group-33" transform="translate(581.000000, 84.000000)">
                <mask id="mask-22" sketch:name="Clip 32" fill="white">
                    <use xlink:href="#path-21"></use>
                </mask>
                <g id="Clip-32"></g>
                <path d="M0.36,0 L18.96,0 L18.96,10.08 L0.36,10.08 L0.36,0 Z" id="Fill-31" fill="#3F4485" sketch:type="MSShapeGroup" mask="url(#mask-22)"></path>
            </g>
        </g>
    </g>
</svg>
